icons/outline/eye-table.svg

<!--
tags: [vision, sight, text, ophthalmology, disease]
category: Health
version: "1.44"
unicode: "ef5e"
-->
<svg
  xmlns="http://www.w3.org/2000/svg"
  width="24"
  height="24"
  viewBox="0 0 24 24"
  fill="none"
  stroke="currentColor"
  stroke-width="2"
  stroke-linecap="round"
  stroke-linejoin="round"
>
  <path d="M8 18h-.011m4.011 0h-.011m4.011 0h-.011m-11.989 -15h16m-15 0v17a1 1 0 0 0 1 1h12a1 1 0 0 0 1 -1v-17m-5 4h-4m-1 8h1m4 0h1m-3 -4v-4" />
</svg>

<!--
tags: [vision, sight, text, ophthalmology, disease]
category: Health
version: "1.44"
unicode: "ef5e"
-->
<svg
  xmlns="http://www.w3.org/2000/svg"
  width="24"
  height="24"
  viewBox="0 0 24 24"
  fill="none"
  stroke="currentColor"
  stroke-width="2"
  stroke-linecap="round"
  stroke-linejoin="round"
>
    <path d="M8 18h-.011M12 18h-.011M16 18h-.011M4 3h16M5 3v17a1 1 0 0 0 1 1h12a1 1 0 0 0 1 -1v-17M14 7h-4M9 15h1M14 15h1M12 11v-4" />
</svg>
